X: 4258
M: 6/8
L: 1/8
K: G
|:\
dBd dBd | g3  gfe | dBd dcB | AFD D2d |\
dBd dBd | g3  gfe | dBd cBA | G3- G2B :|
|:\
dBd dBd | efg gfe | dBd cBA | G3- G2B :|


